; generated by PrusaSlicer 2.8.1+win64 on 2025-01-01 at 19:28:41 UTC


;
;
; 

; external perimeters extrusion width = 0.45mm
; perimeters extrusion width = 0.45mm
; infill extrusion width = 0.45mm
; solid infill extrusion width = 0.45mm
; top infill extrusion width = 0.40mm
; first layer extrusion width = 0.42mm

; external perimeters extrusion width = 0.45mm
; perimeters extrusion width = 0.45mm
; infill extrusion width = 0.45mm
; solid infill extrusion width = 0.45mm
; top infill extrusion width = 0.40mm
; first layer extrusion width = 0.42mm

; external perimeters extrusion width = 0.45mm
; perimeters extrusion width = 0.45mm
; infill extrusion width = 0.45mm
; solid infill extrusion width = 0.45mm
; top infill extrusion width = 0.40mm
; first layer extrusion width = 0.42mm

; external perimeters extrusion width = 0.45mm
; perimeters extrusion width = 0.45mm
; infill extrusion width = 0.45mm
; solid infill extrusion width = 0.45mm
; top infill extrusion width = 0.40mm
; first layer extrusion width = 0.42mm

M73 P0 R178
M73 Q0 S181
M201 X1000 Y1000 Z200 E5000 ; sets maximum accelerations, mm/sec^2
M203 X200 Y200 Z12 E120 ; sets maximum feedrates, mm / sec
M204 S1250 T1250 ; sets acceleration (S) and retract acceleration (R), mm/sec^2
M205 X8.00 Y8.00 Z0.40 E4.50 ; sets the jerk limits, mm/sec
M205 S0 T0 ; sets the minimum extruding and travel feed rate, mm/sec

; printing object noha.stl_1_4 id:3 copy 0
; stop printing object noha.stl_1_4 id:3 copy 0
; printing object noha.stl_1_4 id:3 copy 1
; stop printing object noha.stl_1_4 id:3 copy 1
; printing object noha.stl_1_3 id:2 copy 0
; stop printing object noha.stl_1_3 id:2 copy 0
; printing object noha.stl_1_3 id:2 copy 1
; stop printing object noha.stl_1_3 id:2 copy 1
; printing object noha.stl_1_2 id:1 copy 0
; stop printing object noha.stl_1_2 id:1 copy 0
; printing object noha.stl_1_2 id:1 copy 1
; stop printing object noha.stl_1_2 id:1 copy 1
; printing object noha.stl_1 id:0 copy 0
; stop printing object noha.stl_1 id:0 copy 0
; printing object noha.stl_1 id:0 copy 1
; stop printing object noha.stl_1 id:0 copy 1

;TYPE:Custom
M862.3 P "MK3S" ; printer model check
M862.1 P0.4 ; nozzle diameter check
M115 U3.14.0 ; tell printer latest fw version
G90 ; use absolute coordinates
M83 ; extruder relative mode
M104 S215 ; set extruder temp
M140 S60 ; set bed temp
M190 S60 ; wait for bed temp
M109 S215 ; wait for extruder temp
G28 W ; home all without mesh bed level
G80 X72.4822 Y43.6376 W105.036 H122.725 ; mesh bed levelling

G1 Z0.2 F720
G1 Y-3 F1000 ; go outside print area
G92 E0
G1 X60 E9 F1000 ; intro line
G1 X100 E12.5 F1000 ; intro line
M73 Q0 S180

G92 E0
M221 S95

; Don't change E values below. Excessive value can damage the printer.

M907 E538 ; set extruder motor current
G21 ; set units to millimeters
G90 ; use absolute coordinates
M83 ; use relative distances for extrusion

M900 K0.05 ; Filament gcode LA 1.5
M900 K30 ; Filament gcode LA 1.0




M107
;LAYER_CHANGE
;Z:0.2
;HEIGHT:0.2
G1 E-.8 F2100
G1 Z.6 F720
G1 X73.062 Y44.766 F10800
G1 Z.2 F720
G1 E.8 F2100
M204 S800
;TYPE:Skirt/Brim
;WIDTH:0.42
G1 F1200
G1 X74.095 Y43.964 E.041
G1 X74.859 Y43.826 E.02434
G1 X173.792 Y43.83 E3.10197
G1 X174.409 Y43.905 E.01949
G1 X175.083 Y44.115 E.02213
G1 X175.633 Y44.404 E.01948
G1 X176.189 Y44.84 E.02215
G1 X176.601 Y45.305 E.01948
G1 X176.967 Y45.909 E.02214
G1 X177.187 Y46.49 E.01948
G1 X177.314 Y47.185 E.02215
G1 X177.329 Y102 E1.71869
G1 X177.211 Y102.71 E.02257
G1 X155.955 Y164.695 E2.05459
G1 X155.18 Y165.749 E.04102
G1 X153.884 Y166.174 E.04276
G1 X108.41 Y166.174 E1.42581
G1 X107.161 Y165.783 E.04104
G1 X106.339 Y164.695 E.04275
G1 X85.021 Y102.494 E2.06163
G1 X72.727 Y49.471 E1.7066
G1 X72.671 Y46.015 E.10837
G1 X73.044 Y44.824 E.03913
M204 S1000
;WIPE_START
G1 F8640
G1 X73.062 Y44.766 E-.01402
G1 X74.095 Y43.964 E-.30197
G1 X74.859 Y43.826 E-.17926
G1 X76.179 Y43.826 E-.30475
;WIPE_END
G1 Z.6 F720
; printing object noha.stl_1_4 id:3 copy 1
G1 X139.415 Y110.176 F10800
G1 Z.2 F720
G1 E.8 F2100
M204 S800
;TYPE:Perimeter
;WIDTH:0.419999
G1 F1200
G1 X139.415 Y108.787 E.04355
G1 X152.359 Y108.797 E.40585
G1 X152.721 Y108.875 E.01161
G1 X152.915 Y109.027 E.00773
G1 X153.043 Y109.238 E.00774
G1 X153.097 Y109.612 E.01185
G1 X153.097 Y163.198 E1.68015
G1 X151.709 Y163.198 E.04352
G1 X151.709 Y112.436 E1.5916
G1 X151.61 Y111.803 E.02009
G1 X151.358 Y111.243 E.01925
G1 X151.03 Y110.864 E.01572
G1 X150.641 Y110.526 E.01616
G1 X150.082 Y110.274 E.01923
G1 X149.646 Y110.187 E.01394
G1 X139.475 Y110.176 E.3189
M204 S1000
G1 X139.475 Y110.176 F10800
G1 X139.038 Y110.552
M204 S800
;TYPE:External perimeter
G1 F1200
G1 X139.038 Y108.41 E.06716
G1 X152.527 Y108.42 E.42294
G1 X152.899 Y108.536 E.01222
G1 X153.202 Y108.773 E.01206
G1 X153.401 Y109.102 E.01206
G1 X153.474 Y109.612 E.01615
G1 X153.474 Y163.575 E1.69197
G1 X151.332 Y163.575 E.06716
M73 P0 R177
G1 X151.332 Y112.436 E1.60342
G1 X151.267 Y111.958 E.01513
G1 X150.976 Y111.342 E.02136
G1 X150.486 Y110.87 E.02133
G1 X149.927 Y110.618 E.01923
G1 X149.646 Y110.564 E.00897
G1 X139.098 Y110.552 E.33072
M204 S1000
;WIPE_START
G1 F8640
G1 X139.038 Y110.552 E-.01385
G1 X139.038 Y108.41 E-.49459
G1 X140.301 Y108.411 E-.29156
;WIPE_END
G1 Z.6 F720
G1 X151.831 Y108.966 F10800
G1 Z.2 F720
G1 E.8 F2100
M204 S800
;TYPE:Solid infill
;WIDTH:0.423223
G1 F1200
G1 X152.758 Y109.893 E.04146
G1 X152.758 Y110.431 E.01701
G1 X151.462 Y109.135 E.05796
G1 X150.924 Y109.135 E.01701
G1 X152.758 Y110.969 E.08202
G1 X152.758 Y111.507 E.01701
G1 X150.386 Y109.135 E.10608
G1 X149.848 Y109.134 E.01701
G1 X152.758 Y112.045 E.13016
G1 X152.758 Y112.582 E.01698
G1 X151.953 Y111.778 E.03598
G1 X151.925 Y111.674 E.00341
G1 X151.662 Y111.091 E.02022
G1 X151.492 Y110.845 E.00946
G1 X151.039 Y110.392 E.02026
G1 X150.793 Y110.222 E.00946
G1 X150.102 Y109.927 E.02376
G1 X149.309 Y109.134 E.03546
G1 X148.771 Y109.133 E.01701
G1 X149.485 Y109.847 E.03193
G1 X148.947 Y109.847 E.01701
G1 X148.233 Y109.133 E.03193
G1 X147.695 Y109.133 E.01701
G1 X148.408 Y109.846 E.03189
G1 X147.87 Y109.846 E.01701
G1 X147.157 Y109.132 E.03191
G1 X146.618 Y109.132 E.01704
G1 X147.332 Y109.845 E.03191
G1 X146.793 Y109.844 E.01704
G1 X146.08 Y109.132 E.03186
G1 X145.542 Y109.131 E.01701
G1 X146.255 Y109.844 E.03189
G1 X145.716 Y109.843 E.01704
G1 X145.004 Y109.131 E.03184
G1 X144.466 Y109.13 E.01701
G1 X145.178 Y109.843 E.03186
G1 X144.639 Y109.842 E.01704
G1 X143.927 Y109.13 E.03184
G1 X143.389 Y109.13 E.01701
G1 X144.101 Y109.842 E.03184
G1 X143.563 Y109.841 E.01701
G1 X142.851 Y109.129 E.03184
G1 X142.313 Y109.129 E.01701
G1 X143.024 Y109.84 E.0318
G1 X142.486 Y109.84 E.01701
G1 X141.775 Y109.129 E.0318
G1 X141.236 Y109.128 E.01704
G1 X141.947 Y109.839 E.0318
G1 X141.409 Y109.839 E.01701
G1 X140.698 Y109.128 E.0318
G1 X140.16 Y109.127 E.01701
G1 X140.87 Y109.838 E.03177
G1 X140.332 Y109.837 E.01701
G1 X139.755 Y109.26 E.0258
G1 X139.755 Y109.798 E.01701
G1 X139.964 Y110.007 E.00935
M204 S1000
;WIPE_START
G1 F8640
G1 X139.755 Y109.798 E-.06825
G1 X139.755 Y109.26 E-.12423
G1 X140.332 Y109.837 E-.18842
G1 X140.87 Y109.838 E-.12423
G1 X140.16 Y109.127 E-.23201
G1 X140.432 Y109.127 E-.06286
;WIPE_END
G1 Z.6 F720
G1 X151.855 Y112.217 F10800
G1 Z.2 F720
G1 E.8 F2100
M204 S800
G1 F1200
G1 X152.758 Y113.12 E.04038
G1 X152.758 Y113.658 E.01701
G1 X152.049 Y112.949 E.03171
G1 X152.049 Y113.487 E.01701
G1 X152.758 Y114.196 E.03171
G1 X152.758 Y114.734 E.01701
G1 X152.049 Y114.024 E.03173
G1 X152.049 Y114.562 E.01701
G1 X152.758 Y115.272 E.03173
G1 X152.758 Y115.809 E.01698
G1 X152.049 Y115.1 E.03171
G1 X152.049 Y115.638 E.01701
G1 X152.758 Y116.347 E.03171
G1 X152.758 Y116.885 E.01701
G1 X152.049 Y116.176 E.03171
G1 X152.049 Y116.714 E.01701
G1 X152.758 Y117.423 E.03171
G1 X152.758 Y117.961 E.01701
G1 X152.049 Y117.251 E.03173
G1 X152.049 Y117.789 E.01701
G1 X152.758 Y118.499 E.03173
G1 X152.758 Y119.036 E.01698
G1 X152.049 Y118.327 E.03171
G1 X152.049 Y118.865 E.01701
G1 X152.758 Y119.574 E.03171
G1 X152.758 Y120.112 E.01701
G1 X152.049 Y119.403 E.03171
G1 X152.049 Y119.941 E.01701
G1 X152.758 Y120.65 E.03171
G1 X152.758 Y121.188 E.01701
G1 X152.049 Y120.478 E.03173
G1 X152.049 Y121.016 E.01701
G1 X152.758 Y121.725 E.03171
G1 X152.758 Y122.263 E.01701
G1 X152.049 Y121.554 E.03171
G1 X152.049 Y122.092 E.01701
G1 X152.758 Y122.801 E.03171
G1 X152.758 Y123.339 E.01701
G1 X152.049 Y122.63 E.03171
G1 X152.049 Y123.168 E.01701
G1 X152.758 Y123.877 E.03171
G1 X152.758 Y124.415 E.01701
G1 X152.049 Y123.705 E.03173
G1 X152.049 Y124.243 E.01701
G1 X152.758 Y124.952 E.03171
G1 X152.758 Y125.49 E.01701
G1 X152.049 Y124.781 E.03171
G1 X152.049 Y125.319 E.01701
G1 X152.758 Y126.028 E.03171
G1 X152.758 Y126.566 E.01701
G1 X152.049 Y125.857 E.03171
G1 X152.049 Y126.395 E.01701
G1 X152.758 Y127.104 E.03171
G1 X152.758 Y127.642 E.01701
G1 X152.049 Y126.932 E.03173
G1 X152.049 Y127.47 E.01701
G1 X152.758 Y128.179 E.03171
G1 X152.758 Y128.717 E.01701
G1 X152.049 Y128.008 E.03171
G1 X152.049 Y128.546 E.01701
G1 X152.758 Y129.255 E.03171
G1 X152.758 Y129.793 E.01701
G1 X152.049 Y129.084 E.03171
G1 X152.049 Y129.621 E.01698
G1 X152.758 Y130.331 E.03173
G1 X152.758 Y130.869 E.01701
G1 X152.049 Y130.159 E.03173
G1 X152.049 Y130.697 E.01701
G1 X152.758 Y131.406 E.03171
G1 X152.758 Y131.944 E.01701
G1 X152.049 Y131.235 E.03171
G1 X152.049 Y131.773 E.01701
G1 X152.758 Y132.482 E.03171
G1 X152.758 Y133.02 E.01701
G1 X152.049 Y132.311 E.03171
G1 X152.049 Y132.848 E.01698
G1 X152.758 Y133.558 E.03173
G1 X152.758 Y134.096 E.01701
G1 X152.049 Y133.386 E.03173
G1 X152.049 Y133.924 E.01701
G1 X152.758 Y134.633 E.03171
G1 X152.758 Y135.171 E.01701
G1 X152.049 Y134.462 E.03171
G1 X152.049 Y135 E.01701
G1 X152.758 Y135.709 E.03171
G1 X152.758 Y136.247 E.01701
G1 X152.049 Y135.538 E.03171
G1 X152.049 Y136.075 E.01698
G1 X152.758 Y136.785 E.03173
G1 X152.758 Y137.323 E.01701
G1 X152.049 Y136.613 E.03173
G1 X152.049 Y137.151 E.01701
G1 X152.758 Y137.86 E.03171
G1 X152.758 Y138.398 E.01701
G1 X152.049 Y137.689 E.03171
G1 X152.049 Y138.227 E.01701
G1 X152.758 Y138.936 E.03171
G1 X152.758 Y139.474 E.01701
G1 X152.049 Y138.765 E.03171
G1 X152.049 Y139.302 E.01698
G1 X152.758 Y140.012 E.03173
G1 X152.758 Y140.55 E.01701
G1 X152.049 Y139.84 E.03173
G1 X152.049 Y140.378 E.01701
G1 X152.758 Y141.087 E.03171
G1 X152.758 Y141.625 E.01701
G1 X152.049 Y140.916 E.03171
G1 X152.049 Y141.454 E.01701
G1 X152.758 Y142.163 E.03171
G1 X152.758 Y142.701 E.01701
G1 X152.049 Y141.992 E.03171
G1 X152.049 Y142.529 E.01698
G1 X152.758 Y143.239 E.03173
G1 X152.758 Y143.777 E.01701
G1 X152.049 Y143.067 E.03173
G1 X152.049 Y143.605 E.01701
G1 X152.758 Y144.314 E.03171
G1 X152.758 Y144.852 E.01701
G1 X152.049 Y144.143 E.03171
G1 X152.049 Y144.681 E.01701
G1 X152.758 Y145.39 E.03171
G1 X152.758 Y145.928 E.01701
G1 X152.049 Y145.219 E.03171
G1 X152.049 Y145.756 E.01698
G1 X152.758 Y146.466 E.03173
G1 X152.758 Y147.003 E.01698
G1 X152.049 Y146.294 E.03171
G1 X152.049 Y146.832 E.01701
G1 X152.758 Y147.541 E.03171
G1 X152.758 Y148.079 E.01701
G1 X152.049 Y147.37 E.03171
G1 X152.049 Y147.908 E.01701
G1 X152.758 Y148.617 E.03171
G1 X152.758 Y149.155 E.01701
G1 X152.049 Y148.446 E.03171
G1 X152.049 Y148.983 E.01698
G1 X152.758 Y149.693 E.03173
G1 X152.758 Y150.23 E.01698
G1 X152.049 Y149.521 E.03171
G1 X152.049 Y150.059 E.01701
G1 X152.758 Y150.768 E.03171
G1 X152.758 Y151.306 E.01701
G1 X152.049 Y150.597 E.03171
G1 X152.049 Y151.135 E.01701
G1 X152.758 Y151.844 E.03171
G1 X152.758 Y152.382 E.01701
G1 X152.049 Y151.673 E.03171
G1 X152.049 Y152.21 E.01698
G1 X152.758 Y152.92 E.03173
G1 X152.758 Y153.457 E.01698
G1 X152.049 Y152.748 E.03171
G1 X152.049 Y153.286 E.01701
G1 X152.758 Y153.995 E.03171
G1 X152.758 Y154.533 E.01701
G1 X152.049 Y153.824 E.03171
G1 X152.049 Y154.362 E.01701
G1 X152.758 Y155.071 E.03171
G1 X152.758 Y155.609 E.01701
G1 X152.049 Y154.899 E.03173
G1 X152.049 Y155.437 E.01701
G1 X152.758 Y156.147 E.03173
G1 X152.758 Y156.684 E.01698
G1 X152.049 Y155.975 E.03171
G1 X152.049 Y156.513 E.01701
G1 X152.758 Y157.222 E.03171
G1 X152.758 Y157.76 E.01701
G1 X152.049 Y157.051 E.03171
G1 X152.049 Y157.589 E.01701
G1 X152.758 Y158.298 E.03171
G1 X152.758 Y158.836 E.01701
G1 X152.049 Y158.126 E.03173
G1 X152.049 Y158.664 E.01701
G1 X152.758 Y159.374 E.03173
G1 X152.758 Y159.911 E.01698
G1 X152.049 Y159.202 E.03171
G1 X152.049 Y159.74 E.01701
G1 X152.758 Y160.449 E.03171
G1 X152.758 Y160.987 E.01701
G1 X152.049 Y160.278 E.03171
G1 X152.049 Y160.816 E.01701
G1 X152.758 Y161.525 E.03171
G1 X152.758 Y162.063 E.01701
G1 X152.049 Y161.353 E.03173
G1 X152.049 Y161.891 E.01701
G1 X152.758 Y162.601 E.03173
G1 X152.758 Y162.859 E.00816
G1 X152.478 Y162.859 E.00885
G1 X151.879 Y162.259 E.02681
M204 S1000
;WIPE_START
G1 F8640
G1 X152.478 Y162.859 E-.19576
G1 X152.758 Y162.859 E-.06465
G1 X152.758 Y162.601 E-.05957
G1 X152.049 Y161.891 E-.23168
G1 X152.049 Y161.353 E-.12423
G1 X152.429 Y161.733 E-.12411
;WIPE_END
G1 Z.6 F720
; stop printing object noha.stl_1_4 id:3 copy 1
; printing object noha.stl_1_2 id:1 copy 1
G1 X118.159 Y110.176 F10800
G1 Z.2 F720
G1 E.8 F2100
M204 S800
;TYPE:Perimeter
;WIDTH:0.419999
G1 F1200
G1 X118.159 Y108.787 E.04355
G1 X131.07 Y108.797 E.40481
G1 X131.32 Y108.83 E.00791
G1 X131.59 Y108.955 E.00933
G1 X131.793 Y109.254 E.01133
G1 X131.841 Y109.569 E.00999
G1 X131.841 Y163.198 E1.6815
G1 X130.453 Y163.198 E.04352
G1 X130.453 Y112.436 E1.5916
G1 X130.354 Y111.803 E.02009
G1 X130.009 Y111.1 E.02455
G1 X129.636 Y110.703 E.01708
G1 X129.144 Y110.395 E.0182
G1 X128.39 Y110.187 E.02452
G1 X118.219 Y110.176 E.3189
M73 Q0 S179
M204 S1000
G1 X118.219 Y110.176 F10800
G1 X117.782 Y110.552
M204 S800
;TYPE:External perimeter
G1 F1200
G1 X117.782 Y108.41 E.06716
G1 X131.271 Y108.42 E.42294
G1 X131.531 Y108.501 E.00854
G1 X131.851 Y108.678 E.01147
G1 X132.096 Y108.989 E.01241
G1 X132.185 Y109.225 E.00791
G1 X132.218 Y109.569 E.01084
G1 X132.218 Y163.575 E1.69332
G1 X130.076 Y163.575 E.06716
G1 X130.076 Y112.436 E1.60342
G1 X130.01 Y111.958 E.01513
G1 X129.758 Y111.398 E.01925
G1 X129.455 Y111.043 E.01463
G1 X129.032 Y110.755 E.01605
G1 X128.39 Y110.564 E.021
G1 X117.842 Y110.552 E.33072
M204 S1000
;WIPE_START
G1 F8640
G1 X117.782 Y110.552 E-.01385
G1 X117.782 Y108.41 E-.49459
G1 X119.045 Y108.411 E-.29156
;WIPE_END
G1 Z.6 F720
G1 X130.578 Y108.966 F10800
G1 Z.2 F720
G1 E.8 F2100
M204 S800
;TYPE:Solid infill
;WIDTH:0.423249
G1 F1200
G1 X131.502 Y109.89 E.04132
G1 X131.502 Y110.427 E.01698
G1 X130.21 Y109.135 E.05778
G1 X129.671 Y109.135 E.01705
G1 X131.502 Y110.965 E.08187
G1 X131.502 Y111.503 E.01701
G1 X129.133 Y109.135 E.10593
G1 X128.595 Y109.134 E.01701
G1 X131.502 Y112.041 E.13001
G1 X131.502 Y112.579 E.01701
G1 X130.696 Y111.773 E.03605
G1 X130.668 Y111.674 E.00325
G1 X130.407 Y111.093 E.02014
G1 X130.271 Y110.884 E.00789
G1 X129.986 Y110.562 E.0136
G1 X129.836 Y110.429 E.00634
G1 X129.481 Y110.184 E.01364
G1 X129.256 Y110.075 E.00791
G1 X128.88 Y109.958 E.01245
G1 X128.057 Y109.134 E.03683
G1 X127.518 Y109.133 E.01705
G1 X128.232 Y109.847 E.03193
G1 X127.694 Y109.847 E.01701
G1 X126.98 Y109.133 E.03193
G1 X126.442 Y109.133 E.01701
G1 X127.155 Y109.846 E.03189
G1 X126.617 Y109.846 E.01701
G1 X125.904 Y109.132 E.03191
G1 X125.365 Y109.132 E.01705
G1 X126.079 Y109.845 E.03191
G1 X125.54 Y109.845 E.01705
G1 X124.827 Y109.132 E.03189
G1 X124.289 Y109.131 E.01701
G1 X125.002 Y109.844 E.03189
G1 X124.463 Y109.843 E.01705
G1 X123.751 Y109.131 E.03184
G1 X123.212 Y109.13 E.01705
G1 X123.925 Y109.843 E.03189
G1 X123.386 Y109.842 E.01705
G1 X122.674 Y109.13 E.03184
G1 X122.136 Y109.13 E.01701
G1 X122.848 Y109.842 E.03184
G1 X122.309 Y109.841 E.01705
G1 X121.598 Y109.129 E.03182
G1 X121.059 Y109.129 E.01705
G1 X121.771 Y109.84 E.03182
G1 X121.232 Y109.84 E.01705
G1 X120.521 Y109.129 E.0318
G1 X119.983 Y109.128 E.01701
G1 X120.694 Y109.839 E.0318
G1 X120.156 Y109.839 E.01701
G1 X119.445 Y109.128 E.0318
G1 X118.906 Y109.127 E.01705
G1 X119.617 Y109.838 E.0318
G1 X119.079 Y109.837 E.01701
G1 X118.498 Y109.257 E.02596
G1 X118.498 Y109.795 E.01701
