; generated by PrusaSlicer 2.8.1+win64 on 2025-01-01 at 18:31:22 UTC


;
;
; 

; external perimeters extrusion width = 0.45mm
; perimeters extrusion width = 0.45mm
; infill extrusion width = 0.45mm
; solid infill extrusion width = 0.45mm
; top infill extrusion width = 0.40mm
; first layer extrusion width = 0.42mm

M73 P0 R90
M73 C0
M73 Q0 S95
M73 D92
M201 X1000 Y1000 Z200 E5000 ; sets maximum accelerations, mm/sec^2
M203 X200 Y200 Z12 E120 ; sets maximum feedrates, mm / sec
M204 S1250 T1250 ; sets acceleration (S) and retract acceleration (R), mm/sec^2
M205 X8.00 Y8.00 Z0.40 E4.50 ; sets the jerk limits, mm/sec
M205 S0 T0 ; sets the minimum extruding and travel feed rate, mm/sec

; printing object víko.stl id:0 copy 0
; stop printing object víko.stl id:0 copy 0

;TYPE:Custom
M862.3 P "MK3S" ; printer model check
M862.1 P0.4 ; nozzle diameter check
M115 U3.14.0 ; tell printer latest fw version
G90 ; use absolute coordinates
M83 ; extruder relative mode
M104 S215 ; set extruder temp
M140 S60 ; set bed temp
M190 S60 ; wait for bed temp
M109 S215 ; wait for extruder temp
G28 W ; home all without mesh bed level
G80 X79.3982 Y37.7503 W91.2036 H134.499 ; mesh bed levelling

G1 Z0.2 F720
G1 Y-3 F1000 ; go outside print area
G92 E0
G1 X60 E9 F1000 ; intro line
G1 X100 E12.5 F1000 ; intro line

G92 E0
M221 S95

; Don't change E values below. Excessive value can damage the printer.

M907 E538 ; set extruder motor current
G21 ; set units to millimeters
G90 ; use absolute coordinates
M83 ; use relative distances for extrusion

M900 K0.05 ; Filament gcode LA 1.5
M900 K30 ; Filament gcode LA 1.0




M107
;LAYER_CHANGE
;Z:0.2
;HEIGHT:0.2
G1 E-.8 F2100
G1 Z.6 F720
G1 X79.978 Y38.879 F10800
G1 Z.2 F720
G1 E.8 F2100
M204 S800
;TYPE:Skirt/Brim
;WIDTH:0.42
G1 F1200
G1 X81.011 Y38.077 E.041
G1 X81.775 Y37.939 E.02434
G1 X168.225 Y37.939 E2.71058
G1 X169.473 Y38.33 E.04101
G1 X170.275 Y39.363 E.041
G1 X170.413 Y40.127 E.02434
G1 X170.413 Y169.873 E4.06809
G1 X170.022 Y171.121 E.04101
G1 X168.989 Y171.923 E.041
G1 X168.225 Y172.061 E.02434
G1 X81.775 Y172.061 E2.71058
G1 X80.527 Y171.67 E.04101
M73 D91
G1 X79.725 Y170.637 E.041
G1 X79.587 Y169.873 E.02434
G1 X79.587 Y40.127 E4.06809
G1 X79.96 Y38.936 E.03913
M204 S1000
;WIPE_START
G1 F8640
G1 X79.978 Y38.879 E-.0138
G1 X81.011 Y38.077 E-.30197
G1 X81.775 Y37.939 E-.17926
G1 X83.096 Y37.939 E-.30497
;WIPE_END
G1 Z.6 F720
; printing object víko.stl id:0 copy 0
G1 X139.282 Y169.086 F10800
G1 Z.2 F720
M73 Q0 S94
G1 E.8 F2100
M204 S800
;TYPE:Perimeter
;WIDTH:0.419999
G1 F1200
G1 X139.088 Y168.644 E.01513
G1 X138.627 Y167.75 E.03154
G1 X138.11 Y166.888 E.03152
G1 X137.538 Y166.062 E.0315
G1 X136.914 Y165.273 E.03154
G1 X136.24 Y164.527 E.03152
G1 X135.52 Y163.826 E.03151
G1 X134.756 Y163.172 E.03153
G1 X133.952 Y162.569 E.03151
G1 X133.11 Y162.019 E.03153
G1 X132.235 Y161.524 E.03152
G1 X131.327 Y161.086 E.03161
G1 X130.364 Y160.699 E.03254
G1 X129.444 Y160.392 E.03041
G1 X128.472 Y160.137 E.03151
G1 X127.485 Y159.945 E.03153
G1 X126.488 Y159.817 E.03152
G1 X125.509 Y159.753 E.03076
G1 X125 Y159.753 E.01596
G1 X124.479 Y159.754 E.01634
G1 X123.476 Y159.82 E.03152
G1 X122.479 Y159.95 E.03152
G1 X121.493 Y160.145 E.03151
G1 X120.521 Y160.402 E.03152
G1 X119.568 Y160.722 E.03152
G1 X118.637 Y161.102 E.03153
G1 X117.733 Y161.541 E.03151
G1 X116.857 Y162.039 E.03159
G1 X115.963 Y162.632 E.03364
G1 X115.216 Y163.195 E.02933
G1 X114.453 Y163.85 E.03153
G1 X113.735 Y164.553 E.03151
G1 X113.063 Y165.301 E.03153
G1 X112.441 Y166.091 E.03153
G1 X111.871 Y166.919 E.03152
G1 X111.355 Y167.782 E.03153
G1 X110.718 Y169.086 E.0455
G1 X82.562 Y169.086 E.88281
G1 X82.562 Y40.914 E4.01874
G1 X167.438 Y40.914 E2.66122
G1 X167.438 Y83.352 E1.33061
G1 X167.438 Y169.086 E2.68812
G1 X139.342 Y169.086 E.88093
M204 S1000
G1 X139.342 Y169.086 F10800
G1 X139.035 Y169.463
M204 S800
;TYPE:External perimeter
G1 F1200
G1 X138.753 Y168.816 E.02213
G1 X138.304 Y167.944 E.03075
G1 X137.799 Y167.103 E.03076
G1 X137.242 Y166.295 E.03077
G1 X136.633 Y165.526 E.03076
G1 X135.977 Y164.797 E.03075
G1 X135.274 Y164.112 E.03078
G1 X134.529 Y163.473 E.03077
G1 X133.745 Y162.884 E.03075
G1 X132.924 Y162.347 E.03076
G1 X132.071 Y161.864 E.03074
G1 X131.187 Y161.436 E.03079
G1 X130.213 Y161.045 E.03291
G1 X129.348 Y160.756 E.0286
G1 X128.399 Y160.507 E.03076
G1 X127.436 Y160.319 E.03076
G1 X126.463 Y160.193 E.03076
G1 X125.484 Y160.13 E.03076
G1 X124.503 Y160.13 E.03076
G1 X123.524 Y160.194 E.03076
G1 X122.552 Y160.321 E.03074
G1 X121.589 Y160.509 E.03076
G1 X120.64 Y160.76 E.03078
G1 X119.71 Y161.071 E.03075
G1 X118.801 Y161.441 E.03077
G1 X117.919 Y161.869 E.03074
G1 X117.065 Y162.354 E.03079
G1 X116.189 Y162.933 E.03292
G1 X115.461 Y163.481 E.02857
G1 X114.717 Y164.12 E.03075
G1 X114.015 Y164.806 E.03078
G1 X113.359 Y165.535 E.03075
G1 X112.751 Y166.305 E.03076
G1 X112.194 Y167.113 E.03077
G1 X111.69 Y167.955 E.03077
G1 X111.242 Y168.827 E.03074
G1 X110.965 Y169.463 E.02175
G1 X82.185 Y169.463 E.90238
G1 X82.185 Y40.537 E4.04238
M73 P1 R90
G1 X167.815 Y40.537 E2.68486
M73 P1 R89
M73 Q1 S94
G1 X167.815 Y83.352 E1.34243
G1 X167.815 Y169.463 E2.69995
G1 X139.095 Y169.463 E.90049
M204 S1000
;WIPE_START
G1 F8640
G1 X139.035 Y169.463 E-.01385
G1 X138.753 Y168.816 E-.16297
G1 X138.304 Y167.944 E-.22647
G1 X137.799 Y167.103 E-.22651
G1 X137.38 Y166.496 E-.1702
;WIPE_END
G1 Z.6 F720
G1 X166.505 Y41.084 F10800
G1 Z.2 F720
G1 E.8 F2100
M204 S800
;TYPE:Solid infill
;WIDTH:0.420357
G1 F1200
G1 X167.098 Y41.677 E.02632
G1 X167.098 Y42.211 E.01676
G1 X166.141 Y41.254 E.04248
G1 X165.607 Y41.254 E.01676
G1 X167.098 Y42.745 E.06618
G1 X167.098 Y43.279 E.01676
G1 X165.073 Y41.254 E.08988
G1 X164.54 Y41.254 E.01673
G1 X167.098 Y43.813 E.11356
G1 X167.098 Y44.346 E.01673
G1 X164.006 Y41.254 E.13723
G1 X163.472 Y41.254 E.01676
G1 X167.098 Y44.88 E.16094
G1 X167.098 Y45.414 E.01676
G1 X162.938 Y41.254 E.18464
G1 X162.404 Y41.254 E.01676
G1 X167.098 Y45.948 E.20834
G1 X167.098 Y46.481 E.01673
G1 X161.871 Y41.254 E.23199
G1 X161.337 Y41.254 E.01676
G1 X167.098 Y47.015 E.25569
G1 X167.098 Y47.549 E.01676
G1 X160.803 Y41.254 E.2794
G1 X160.269 Y41.254 E.01676
G1 X167.098 Y48.083 E.3031
G1 X167.098 Y48.617 E.01676
G1 X159.736 Y41.254 E.32678
G1 X159.202 Y41.254 E.01676
G1 X167.098 Y49.15 E.35045
G1 X167.098 Y49.684 E.01676
G1 X158.668 Y41.254 E.37415
G1 X158.134 Y41.254 E.01676
G1 X167.098 Y50.218 E.39786
G1 X167.098 Y50.752 E.01676
M73 D90
G1 X157.6 Y41.254 E.42156
G1 X157.067 Y41.254 E.01673
G1 X167.098 Y51.285 E.44521
G1 X167.098 Y51.819 E.01676
G1 X156.533 Y41.254 E.46891
G1 X155.999 Y41.254 E.01676
G1 X167.098 Y52.353 E.49261
G1 X167.098 Y52.887 E.01676
G1 X155.465 Y41.254 E.51632
G1 X154.932 Y41.254 E.01673
G1 X167.098 Y53.421 E.53999
G1 X167.098 Y53.954 E.01673
G1 X154.398 Y41.254 E.56367
G1 X153.864 Y41.254 E.01676
G1 X167.098 Y54.488 E.58737
G1 X167.098 Y55.022 E.01676
G1 X153.33 Y41.254 E.61107
G1 X152.796 Y41.254 E.01676
M73 Q1 S93
G1 X167.098 Y55.556 E.63478
G1 X167.098 Y56.089 E.01673
G1 X152.263 Y41.254 E.65843
G1 X151.729 Y41.254 E.01676
G1 X167.098 Y56.623 E.68213
G1 X167.098 Y57.157 E.01676
G1 X151.195 Y41.254 E.70583
G1 X150.661 Y41.254 E.01676
G1 X167.098 Y57.691 E.72953
G1 X167.098 Y58.225 E.01676
G1 X150.128 Y41.254 E.75321
G1 X149.594 Y41.254 E.01676
G1 X167.098 Y58.758 E.77689
G1 X167.098 Y59.292 E.01676
G1 X149.06 Y41.254 E.80059
G1 X148.526 Y41.254 E.01676
G1 X167.098 Y59.826 E.82429
G1 X167.098 Y60.36 E.01676
G1 X147.992 Y41.254 E.84799
G1 X147.459 Y41.254 E.01673
G1 X167.098 Y60.893 E.87165
G1 X167.098 Y61.427 E.01676
G1 X146.925 Y41.254 E.89535
G1 X146.391 Y41.254 E.01676
G1 X167.098 Y61.961 E.91905
G1 X167.098 Y62.495 E.01676
G1 X145.857 Y41.254 E.94275
G1 X145.324 Y41.254 E.01673
G1 X167.098 Y63.029 E.96643
G1 X167.098 Y63.562 E.01673
G1 X144.79 Y41.254 E.99011
G1 X144.256 Y41.254 E.01676
M73 P2 R89
G1 X167.098 Y64.096 E1.01381
G1 X167.098 Y64.63 E.01676
G1 X143.722 Y41.254 E1.03751
G1 X143.188 Y41.254 E.01676
M73 Q2 S93
G1 X167.098 Y65.164 E1.06121
G1 X167.098 Y65.697 E.01673
G1 X142.655 Y41.254 E1.08487
G1 X142.121 Y41.254 E.01676
G1 X167.098 Y66.231 E1.10857
G1 X167.098 Y66.765 E.01676
M73 P2 R88
G1 X141.587 Y41.254 E1.13227
G1 X141.053 Y41.254 E.01676
G1 X167.098 Y67.299 E1.15597
G1 X167.098 Y67.832 E.01673
G1 X140.52 Y41.254 E1.17963
G1 X139.986 Y41.254 E.01676
G1 X167.098 Y68.366 E1.20333
G1 X167.098 Y68.9 E.01676
G1 X139.452 Y41.254 E1.22703
G1 X138.918 Y41.254 E.01676
G1 X167.098 Y69.434 E1.25073
G1 X167.098 Y69.968 E.01676
G1 X138.384 Y41.254 E1.27443
G1 X137.851 Y41.254 E.01673
G1 X167.098 Y70.501 E1.29809
G1 X167.098 Y71.035 E.01676
G1 X137.317 Y41.254 E1.32179
G1 X136.783 Y41.254 E.01676
G1 X167.098 Y71.569 E1.34549
G1 X167.098 Y72.103 E.01676
G1 X136.249 Y41.254 E1.36919
G1 X135.716 Y41.254 E.01673
M73 D89
G1 X167.098 Y72.636 E1.39285
G1 X167.098 Y73.17 E.01676
G1 X135.182 Y41.254 E1.41655
G1 X134.648 Y41.254 E.01676
G1 X167.098 Y73.704 E1.44025
G1 X167.098 Y74.238 E.01676
G1 X134.114 Y41.254 E1.46395
G1 X133.58 Y41.254 E.01676
M73 Q2 S92
G1 X167.098 Y74.772 E1.48765
G1 X167.098 Y75.305 E.01673
G1 X133.047 Y41.254 E1.51131
G1 X132.513 Y41.254 E.01676
G1 X167.098 Y75.839 E1.53501
G1 X167.098 Y76.373 E.01676
G1 X131.979 Y41.254 E1.55871
G1 X131.445 Y41.254 E.01676
G1 X167.098 Y76.907 E1.58241
G1 X167.098 Y77.44 E.01673
G1 X130.912 Y41.254 E1.60607
G1 X130.378 Y41.254 E.01676
M73 P3 R88
G1 X167.098 Y77.974 E1.62977
G1 X167.098 Y78.508 E.01676
G1 X129.844 Y41.254 E1.65347
G1 X129.31 Y41.254 E.01676
M73 Q3 S92
G1 X167.098 Y79.042 E1.67717
G1 X167.098 Y79.576 E.01676
G1 X128.777 Y41.254 E1.70085
G1 X128.243 Y41.254 E.01676
G1 X167.098 Y80.109 E1.72453
G1 X167.098 Y80.643 E.01676
M73 P3 R87
G1 X127.709 Y41.254 E1.74823
G1 X127.175 Y41.254 E.01676
G1 X167.098 Y81.177 E1.77193
G1 X167.098 Y81.711 E.01676
G1 X126.641 Y41.254 E1.79563
G1 X126.108 Y41.254 E.01673
G1 X167.098 Y82.244 E1.81929
G1 X167.098 Y82.778 E.01676
G1 X125.574 Y41.254 E1.84299
G1 X125.04 Y41.254 E.01676
G1 X167.098 Y83.312 E1.86669
G1 X167.098 Y83.846 E.01676
G1 X124.506 Y41.254 E1.89039
G1 X123.973 Y41.254 E.01673
G1 X167.098 Y84.38 E1.91407
G1 X167.098 Y84.913 E.01673
M73 D88
G1 X123.439 Y41.254 E1.93775
G1 X122.905 Y41.254 E.01676
G1 X167.098 Y85.447 E1.96145
G1 X167.098 Y85.981 E.01676
M73 Q3 S91
G1 X122.371 Y41.254 E1.98515
G1 X121.837 Y41.254 E.01676
G1 X167.098 Y86.515 E2.00885
G1 X167.098 Y87.048 E.01673
G1 X121.304 Y41.254 E2.03251
G1 X120.77 Y41.254 E.01676
M73 P4 R87
G1 X167.098 Y87.582 E2.05621
G1 X167.098 Y88.116 E.01676
G1 X120.236 Y41.254 E2.07991
G1 X119.702 Y41.254 E.01676
G1 X167.098 Y88.65 E2.10361
G1 X167.098 Y89.184 E.01676
M73 Q4 S91
G1 X119.169 Y41.254 E2.12729
G1 X118.635 Y41.254 E.01676
G1 X167.098 Y89.717 E2.15097
G1 X167.098 Y90.251 E.01676
G1 X118.101 Y41.254 E2.17467
G1 X117.567 Y41.254 E.01676
M73 P4 R86
G1 X167.098 Y90.785 E2.19837
G1 X167.098 Y91.319 E.01676
G1 X117.033 Y41.254 E2.22207
G1 X116.5 Y41.254 E.01673
G1 X167.098 Y91.852 E2.24573
G1 X167.098 Y92.386 E.01676
G1 X115.966 Y41.254 E2.26943
G1 X115.432 Y41.254 E.01676
G1 X167.098 Y92.92 E2.29313
G1 X167.098 Y93.454 E.01676
G1 X114.898 Y41.254 E2.31683
G1 X114.365 Y41.254 E.01673
M73 D87
G1 X167.098 Y93.988 E2.34051
G1 X167.098 Y94.521 E.01673
G1 X113.831 Y41.254 E2.36419
G1 X113.297 Y41.254 E.01676
M73 Q4 S90
G1 X167.098 Y95.055 E2.38789
G1 X167.098 Y95.589 E.01676
M73 P5 R86
G1 X112.763 Y41.254 E2.41159
G1 X112.229 Y41.254 E.01676
G1 X167.098 Y96.123 E2.43529
G1 X167.098 Y96.656 E.01673
G1 X111.696 Y41.254 E2.45895
G1 X111.162 Y41.254 E.01676
G1 X167.098 Y97.19 E2.48265
G1 X167.098 Y97.724 E.01676
M73 Q5 S90
G1 X110.628 Y41.254 E2.50635
G1 X110.094 Y41.254 E.01676
G1 X167.098 Y98.258 E2.53005
G1 X167.098 Y98.792 E.01676
G1 X109.561 Y41.254 E2.55373
G1 X109.027 Y41.254 E.01676
M73 P5 R85
G1 X167.098 Y99.325 E2.57741
G1 X167.098 Y99.859 E.01676
G1 X108.493 Y41.254 E2.60111
G1 X107.959 Y41.254 E.01676
G1 X167.098 Y100.393 E2.62481
G1 X167.098 Y100.927 E.01676
G1 X107.425 Y41.254 E2.64851
G1 X106.892 Y41.254 E.01673
G1 X167.098 Y101.46 E2.67217
G1 X167.098 Y101.994 E.01676
M73 D86
G1 X106.358 Y41.254 E2.69587
G1 X105.824 Y41.254 E.01676
G1 X167.098 Y102.528 E2.71957
G1 X167.098 Y103.062 E.01676
M73 P6 R85
M73 Q5 S89
G1 X105.29 Y41.254 E2.74327
G1 X104.757 Y41.254 E.01673
G1 X167.098 Y103.596 E2.76695
G1 X167.098 Y104.129 E.01673
G1 X104.223 Y41.254 E2.79063
G1 X103.689 Y41.254 E.01676
M73 Q6 S89
G1 X167.098 Y104.663 E2.81433
G1 X167.098 Y105.197 E.01676
G1 X103.155 Y41.254 E2.83803
G1 X102.621 Y41.254 E.01676
G1 X167.098 Y105.731 E2.86173
G1 X167.098 Y106.264 E.01673
G1 X102.088 Y41.254 E2.88538
G1 X101.554 Y41.254 E.01676
M73 P6 R84
G1 X167.098 Y106.798 E2.90909
G1 X167.098 Y107.332 E.01676
G1 X101.02 Y41.254 E2.93279
G1 X100.486 Y41.254 E.01676
G1 X167.098 Y107.866 E2.95649
G1 X167.098 Y108.4 E.01676
G1 X99.953 Y41.254 E2.98017
G1 X99.419 Y41.254 E.01676
G1 X167.098 Y108.933 E3.00384
G1 X167.098 Y109.467 E.01676
M73 P7 R84
M73 D85
G1 X98.885 Y41.254 E3.02755
G1 X98.351 Y41.254 E.01676
M73 Q6 S88
G1 X167.098 Y110.001 E3.05125
G1 X167.098 Y110.535 E.01676
G1 X97.817 Y41.254 E3.07495
G1 X97.284 Y41.254 E.01673
M73 Q7 S88
G1 X167.098 Y111.068 E3.0986
G1 X167.098 Y111.602 E.01676
G1 X96.75 Y41.254 E3.1223
G1 X96.216 Y41.254 E.01676
G1 X167.098 Y112.136 E3.14601
G1 X167.098 Y112.67 E.01676
G1 X95.682 Y41.254 E3.16971
G1 X95.149 Y41.254 E.01673
M73 P7 R83
G1 X167.098 Y113.203 E3.19336
G1 X167.098 Y113.737 E.01676
G1 X94.615 Y41.254 E3.21706
G1 X94.081 Y41.254 E.01676
G1 X167.098 Y114.271 E3.24076
G1 X167.098 Y114.805 E.01676
G1 X93.547 Y41.254 E3.26447
G1 X93.013 Y41.254 E.01676
M73 P8 R83
M73 D84
G1 X167.098 Y115.339 E3.28817
G1 X167.098 Y115.872 E.01673
G1 X92.48 Y41.254 E3.31182
G1 X91.946 Y41.254 E.01676
M73 Q7 S87
G1 X167.098 Y116.406 E3.33552
G1 X167.098 Y116.94 E.01676
M73 Q8 S87
G1 X91.412 Y41.254 E3.35922
G1 X90.878 Y41.254 E.01676
G1 X167.098 Y117.474 E3.38293
G1 X167.098 Y118.007 E.01673
G1 X90.345 Y41.254 E3.40658
G1 X89.811 Y41.254 E.01676
G1 X167.098 Y118.541 E3.43028
G1 X167.098 Y119.075 E.01676
M73 P8 R82
G1 X89.277 Y41.254 E3.45398
G1 X88.743 Y41.254 E.01676
G1 X167.098 Y119.609 E3.47768
G1 X167.098 Y120.143 E.01676
G1 X88.209 Y41.254 E3.50139
G1 X87.676 Y41.254 E.01673
M73 P9 R82
G1 X167.098 Y120.676 E3.52504
G1 X167.098 Y121.21 E.01676
M73 D83
G1 X87.142 Y41.254 E3.54874
G1 X86.608 Y41.254 E.01676
G1 X167.098 Y121.744 E3.57244
G1 X167.098 Y122.278 E.01676
M73 Q8 S86
G1 X86.074 Y41.254 E3.59615
G1 X85.541 Y41.254 E.01673
M73 Q9 S86
G1 X167.098 Y122.811 E3.6198
G1 X167.098 Y123.345 E.01676
G1 X85.007 Y41.254 E3.6435
G1 X84.473 Y41.254 E.01676
G1 X167.098 Y123.879 E3.6672
G1 X167.098 Y124.413 E.01676
G1 X83.939 Y41.254 E3.6909
G1 X83.405 Y41.254 E.01676
M73 P9 R81
G1 X167.098 Y124.947 E3.71461
G1 X167.098 Y125.48 E.01673
M73 P10 R81
G1 X82.902 Y41.284 E3.73693
G1 X82.902 Y41.818 E.01676
G1 X167.098 Y126.014 E3.73693
G1 X167.098 Y126.548 E.01676
G1 X82.902 Y42.351 E3.73695
G1 X82.902 Y42.885 E.01676
M73 D82
G1 X167.098 Y127.082 E3.73695
G1 X167.098 Y127.615 E.01673
M73 Q10 S85
G1 X82.902 Y43.419 E3.73693
G1 X82.902 Y43.953 E.01676
G1 X167.098 Y128.149 E3.73693
G1 X167.098 Y128.683 E.01676
G1 X82.902 Y44.486 E3.73695
G1 X82.902 Y45.02 E.01676
G1 X167.098 Y129.217 E3.73695
G1 X167.098 Y129.751 E.01676
G1 X82.902 Y45.554 E3.73695
G1 X82.902 Y46.088 E.01676
M73 P11 R80
G1 X167.098 Y130.284 E3.73693
G1 X167.098 Y130.818 E.01676
G1 X82.902 Y46.622 E3.73693
G1 X82.902 Y47.155 E.01673
G1 X167.098 Y131.352 E3.73695
G1 X167.098 Y131.886 E.01676
G1 X82.902 Y47.689 E3.73695
G1 X82.902 Y48.223 E.01676
M73 D81
G1 X167.098 Y132.419 E3.73693
G1 X167.098 Y132.953 E.01676
M73 Q11 S84
G1 X82.902 Y48.757 E3.73693
G1 X82.902 Y49.29 E.01673
G1 X167.098 Y133.487 E3.73695
G1 X167.098 Y134.021 E.01676
G1 X82.902 Y49.824 E3.73695
G1 X82.902 Y50.358 E.01676
G1 X167.098 Y134.555 E3.73695
G1 X167.098 Y135.088 E.01673
M73 P12 R80
G1 X82.902 Y50.892 E3.73693
G1 X82.902 Y51.426 E.01676
M73 P12 R79
G1 X167.098 Y135.622 E3.73693
G1 X167.098 Y136.156 E.01676
